X: 193
T: No_51_Cow_Creek_Hunting_Dance_Song_(r).krn
N: Derived from No_51_Cow_Creek_Hunting_Dance_Song_(r).krn
%%abc-version 2.0
%%abcx-abcm2ps-target-version 5.9.1 (29 Sep 2008)
%%abc-creator hum2abc beta
%%abcx-conversion-date 2019/03/15 08:38:45
%%humdrum-veritas 3863914490
%%humdrum-veritas-data 1683185960
%%linebreak <none>
%%barnumbers 0
L: 1/8
M: 2/4
K: F clef=bass
[K:clef=bass][M:2/4]z2z3/ C/ | 
C4 | 
G,2F, z/ C/ ]|:  
C4 | 
CCB,2 | 
G,2F,F, | 
F,3z | 
CCB,2 | 
G,2F,F, | 
F,4 | 
G,2F,/F,F,/ | 
F,D,-D,2 | 
F,2D,D, | 
D,2z3/ B,/ | 
B,/G,3/-G,2 | 
G,2z3/ C/ :|]  
D,2z2 |]  



